src/images/logo.svg

<svg width="48" height="63" viewBox="0 0 48 63" fill="none" xmlns="http://www.w3.org/2000/svg">
<path d="M47.9284 25.076V37.0097C47.9284 37.0097 47.8992 38.2205 46.7066 38.2205H32.7899V48.9331C32.7899 48.9331 32.7899 50.1438 31.5681 50.1438H17.6514V60.8709C17.6514 61.529 17.0896 62.0816 16.4296 62.0816H1.29315C0.628957 62.0816 0.0712891 61.5249 0.0712891 60.8709V48.9331C0.0712891 48.9331 0.104707 47.7223 1.29315 47.7223H15.2098V38.2184H1.29315C1.29315 38.2184 0.198696 38.2515 0.0712891 37.0077V25.074C0.0712891 25.074 0.0754663 23.8632 1.29315 23.8632C2.51083 23.8632 15.2098 23.8632 15.2098 23.8632V14.3138H1.25346C0.0775549 14.3138 0.0712891 13.1424 0.0712891 13.1424V1.21075C0.0712891 0.0393236 1.29315 0 1.29315 0H16.4317C17.6138 0 17.6535 1.21075 17.6535 1.21075V11.9295H31.5702C31.5702 11.9295 32.792 12.0123 32.792 13.1403V23.8674H46.7087C46.7066 23.8653 47.9284 23.9046 47.9284 25.076ZM30.3483 35.7886V26.2847H17.6514V35.7886H30.3483Z" fill="#F6F7FB"/>
</svg>

<svg width="48" height="63" fill="none" xmlns="http://www.w3.org/2000/svg"><path d="M47.928 25.076V37.01s-.029 1.21-1.221 1.21H32.79v10.713s0 1.21-1.222 1.21H17.651v10.728c0 .658-.561 1.21-1.221 1.21H1.293a1.233 1.233 0 0 1-1.222-1.21V48.933s.034-1.21 1.222-1.21H15.21v-9.505H1.293S.2 38.251.071 37.008V25.074s.004-1.21 1.222-1.21H15.21v-9.55H1.253c-1.175 0-1.182-1.172-1.182-1.172V1.211C.071.039 1.293 0 1.293 0h15.139c1.182 0 1.222 1.21 1.222 1.21v10.72H31.57s1.222.082 1.222 1.21v10.727h13.917c-.002-.002 1.22.038 1.22 1.209zm-17.58 10.713v-9.504H17.651v9.504h12.697z" fill="#F6F7FB"/></svg>
